resources/svg/hand-heart-line.svg

<svg fill="currentColor" viewBox="0 0 24 24" xmlns="http://www.w3.org/2000/svg"><path d="M5.00488 9.00256C5.55717 9.00256 6.00488 9.45027 6.00488 10.0026C7.63965 10.0026 9.14352 10.5629 10.3349 11.5021L12.5049 11.5026C13.837 11.5026 15.0339 12.0814 15.8579 13.0013L19.0049 13.0026C20.9972 13.0026 22.7173 14.1678 23.521 15.854C21.1562 18.9746 17.3268 21.0026 13.0049 21.0026C10.2142 21.0026 7.85466 20.3993 5.944 19.3446C5.80557 19.7281 5.43727 20.0026 5.00488 20.0026H2.00488C1.4526 20.0026 1.00488 19.5548 1.00488 19.0026V10.0026C1.00488 9.45027 1.4526 9.00256 2.00488 9.00256H5.00488ZM6.00589 12.0026L6.00488 17.0237L6.05024 17.057C7.84406 18.3175 10.183 19.0026 13.0049 19.0026C16.0089 19.0026 18.8035 17.8469 20.84 15.8731L20.9729 15.7396L20.8537 15.6392C20.3897 15.2762 19.8205 15.0509 19.2099 15.0095L19.0049 15.0026L16.8932 15.0016C16.9663 15.3235 17.0049 15.6585 17.0049 16.0026V17.0026H8.00488V15.0026L14.7949 15.0016L14.7605 14.9231C14.38 14.1295 13.593 13.5678 12.6693 13.5079L12.5049 13.5026L9.57547 13.5024C8.66823 12.577 7.40412 12.0028 6.00589 12.0026ZM4.00488 11.0026H3.00488V18.0026H4.00488V11.0026ZM13.6513 3.57794L14.0046 3.9317L14.3584 3.57794C15.3347 2.60163 16.9177 2.60163 17.894 3.57794C18.8703 4.55425 18.8703 6.13716 17.894 7.11347L14.0049 11.0026L10.1158 7.11347C9.13948 6.13716 9.13948 4.55425 10.1158 3.57794C11.0921 2.60163 12.675 2.60163 13.6513 3.57794ZM11.53 4.99215C11.3564 5.16572 11.3372 5.43514 11.4714 5.62926L11.5289 5.69819L14.0039 8.17356L16.4798 5.69926C16.6533 5.52569 16.6726 5.25627 16.5376 5.0614L16.4798 4.99215C16.3062 4.81858 16.0368 4.7993 15.8417 4.93444L15.7724 4.99236L14.0033 6.76098L12.236 4.99108L12.1679 4.93429C11.973 4.7993 11.7036 4.81858 11.53 4.99215Z"/></svg>

<svg xmlns="http://www.w3.org/2000/svg" viewBox="0 0 24 24" fill="currentColor">
    <g>
        <path fill="none" d="M0 0h24v24H0z"/>
        <path fill-rule="nonzero" d="M5 9a1 1 0 0 1 1 1 6.97 6.97 0 0 1 4.33 1.5h2.17c1.332 0 2.53.579 3.353 1.499L19 13a5 5 0 0 1 4.516 2.851C21.151 18.972 17.322 21 13 21c-2.79 0-5.15-.603-7.06-1.658A.998.998 0 0 1 5 20H2a1 1 0 0 1-1-1v-9a1 1 0 0 1 1-1h3zm1.001 3L6 17.021l.045.033C7.84 18.314 10.178 19 13 19c3.004 0 5.799-1.156 7.835-3.13l.133-.133-.12-.1a2.994 2.994 0 0 0-1.643-.63L19 15l-2.112-.001c.073.322.112.657.112 1.001v1H8v-2l6.79-.001-.034-.078a2.501 2.501 0 0 0-2.092-1.416L12.5 13.5H9.57A4.985 4.985 0 0 0 6.002 12zM4 11H3v7h1v-7zm9.646-7.425L14 3.93l.354-.354a2.5 2.5 0 1 1 3.535 3.536L14 11l-3.89-3.89a2.5 2.5 0 1 1 3.536-3.535zm-2.12 1.415a.5.5 0 0 0-.06.637l.058.069L14 8.17l2.476-2.474a.5.5 0 0 0 .058-.638l-.058-.07a.5.5 0 0 0-.638-.057l-.07.058-1.769 1.768-1.767-1.77-.068-.056a.5.5 0 0 0-.638.058z"/>
    </g>
</svg>
